src/assets/G1.svg

<svg width="88" height="95" viewBox="0 0 88 95" fill="none" xmlns="http://www.w3.org/2000/svg">
<path d="M23.0395 29.6089H2.59855C2.08613 29.609 1.58514 29.4569 1.15857 29.1717C0.73201 28.8866 0.398924 28.4812 0.201207 28.0064C0.00348985 27.5316 -0.0500296 27.0088 0.0473794 26.5035C0.144788 25.9983 0.388776 25.5333 0.748658 25.167L21.4493 4.08886C21.691 3.84269 21.979 3.64723 22.2966 3.51383C22.6142 3.38042 22.9551 3.31174 23.2993 3.31177H33.5197C33.9625 3.31169 34.3981 3.42528 34.7849 3.64176C35.1717 3.85824 35.497 4.17043 35.7299 4.54868C35.9628 4.92693 36.0956 5.35868 36.1156 5.80295C36.1356 6.24722 36.0422 6.68926 35.8443 7.0871L25.3641 28.1652C25.1484 28.599 24.8167 28.9639 24.4061 29.2189C23.9955 29.4739 23.5222 29.6089 23.0395 29.6089Z" fill="#A0EBFF"/>
<path d="M85.4018 29.6089H64.9609C64.4781 29.6089 64.0048 29.4739 63.5942 29.2189C63.1835 28.9639 62.8518 28.599 62.6361 28.1652L52.1558 7.0871C51.9581 6.68924 51.8649 6.24725 51.885 5.80306C51.9051 5.35886 52.0379 4.92719 52.2708 4.54901C52.5036 4.17082 52.8289 3.85865 53.2156 3.64212C53.6023 3.42559 54.0377 3.31188 54.4804 3.31177H64.7008C65.0451 3.31178 65.3859 3.38048 65.7035 3.51388C66.0211 3.64728 66.3091 3.84272 66.5509 4.08886L87.2517 25.167C87.6114 25.5333 87.8553 25.9983 87.9527 26.5035C88.0501 27.0087 87.9966 27.5315 87.7989 28.0062C87.6013 28.481 87.2682 28.8865 86.8417 29.1716C86.4152 29.4568 85.9142 29.609 85.4018 29.6089Z" fill="#73C8F0"/>
<path d="M20.134 26.9316L33.5198 3.31177H54.4805L67.8252 26.9316H20.134Z" fill="#D2F0FF"/>
<path d="M62.1492 26.9316L41.624 73.5028C41.3724 74.0735 41.3329 74.7159 41.5126 75.3134C41.6923 75.9109 42.0793 76.4239 42.6034 76.7593C43.0201 77.0266 43.5043 77.1686 43.9988 77.1686C44.7274 77.1686 45.447 76.8615 45.9563 76.2765L87.3577 28.7169C87.7867 28.2235 88.0151 27.5861 87.9974 26.9314H62.1492V26.9316Z" fill="#0073AA"/>
<path d="M25.8511 26.9316H0.00265421C-0.0149327 27.5864 0.213439 28.2238 0.642373 28.7171L42.0438 76.2767C42.2877 76.5572 42.5886 76.7819 42.9263 76.9358C43.2639 77.0896 43.6305 77.1691 44.0013 77.1688C44.4818 77.1688 44.9664 77.0352 45.3967 76.7595C45.9208 76.424 46.3077 75.911 46.4874 75.3136C46.6671 74.7161 46.6276 74.0738 46.3761 73.5031L25.8511 26.9316Z" fill="#41B4E6"/>
<path d="M20.134 26.9316L41.6243 75.6153C41.8279 76.0776 42.1608 76.4705 42.5826 76.7463C43.0044 77.0222 43.4969 77.169 44.0003 77.169C44.5036 77.169 44.9961 77.0222 45.4179 76.7463C45.8397 76.4705 46.1726 76.0776 46.3763 75.6153L67.8254 26.9316H20.134Z" fill="#A0EBFF"/>
<path d="M43.9797 26.9316H67.8253L54.4804 3.31177H43.9797V26.9316Z" fill="#41B4E6"/>
<path d="M44.0002 77.1686C44.5035 77.1687 44.996 77.0219 45.4178 76.7461C45.8396 76.4704 46.1726 76.0775 46.3762 75.6153L67.8252 26.9316H44.0002V77.1686Z" fill="#73C8F0"/>
</svg>

<svg width="88" height="95" fill="none" xmlns="http://www.w3.org/2000/svg"><path d="M23.04 29.609H2.599a2.59 2.59 0 0 1-1.44-.437 2.62 2.62 0 0 1-.41-4.005l20.7-21.078a2.597 2.597 0 0 1 1.85-.777h10.22a2.59 2.59 0 0 1 2.21 1.237 2.617 2.617 0 0 1 .115 2.538l-10.48 21.078a2.59 2.59 0 0 1-2.325 1.444z" fill="#A0EBFF"/><path d="M85.402 29.609H64.96a2.59 2.59 0 0 1-2.325-1.444L52.156 7.087a2.62 2.62 0 0 1 1.06-3.445 2.59 2.59 0 0 1 1.264-.33H64.7a2.59 2.59 0 0 1 1.85.777l20.702 21.078a2.614 2.614 0 0 1 .547 2.84c-.198.474-.53.88-.957 1.165a2.59 2.59 0 0 1-1.44.437z" fill="#73C8F0"/><path d="M20.134 26.932 33.52 3.312h20.96l13.345 23.62H20.134z" fill="#D2F0FF"/><path d="m62.15 26.932-20.526 46.57a2.62 2.62 0 0 0 .98 3.257 2.591 2.591 0 0 0 3.353-.483l41.4-47.56c.43-.492.658-1.13.64-1.785H62.15z" fill="#0073AA"/><path d="M25.851 26.932H.003c-.018.654.21 1.292.64 1.785l41.4 47.56a2.596 2.596 0 0 0 1.958.892 2.608 2.608 0 0 0 2.486-1.855 2.62 2.62 0 0 0-.11-1.81L25.85 26.931z" fill="#41B4E6"/><path d="m20.134 26.932 21.49 48.683c.204.463.537.856.959 1.131a2.59 2.59 0 0 0 3.793-1.13l21.45-48.684H20.133z" fill="#A0EBFF"/><path d="M43.98 26.932h23.845L54.48 3.312h-10.5v23.62z" fill="#41B4E6"/><path d="M44 77.169a2.59 2.59 0 0 0 1.418-.423c.422-.276.755-.668.958-1.13l21.45-48.684H44v50.237z" fill="#73C8F0"/></svg>
